X:516
T:Mozuques de Roblu (CT 288)
C:Tradicional
S:Msica Tradicional Asturiana, (C) Tello & Tito. Asturies, 2001.
S:http://pagina.de/MusTradAst <telloytito@asturies.org>
N:Cancin de empleo indeterminado, transcrita en Somiedu
A:Asturies
O:Somiedu
Z:Cancioneru de Torner 288
M:3/4
L:1/8
Q:1/4=104
K:Gm
|zd dd dd|e d2 cB(B/c/)|d2 d4|zG BB BA|c c2 G BB|(A B/4A/4G/4^F/4) G4||
W:Mozuques de robledo,
W:compri corales,
W:que vienen los pastores
W:por Fuencarrales.
W:
